icons/svg/icons8/weightlift.svg

<svg width="26" height="26" viewBox="0 0 26 26" fill="none" xmlns="http://www.w3.org/2000/svg">
<g clip-path="url(#clip0)">
<path d="M13 11C14.1046 11 15 10.1046 15 9C15 7.89543 14.1046 7 13 7C11.8954 7 11 7.89543 11 9C11 10.1046 11.8954 11 13 11Z" fill="#333333"/>
<path d="M17.4292 3C16.6542 7.834 16.3852 12.077 13.0002 12.077C9.44723 12.077 9.32523 7.088 8.57123 3C7.87523 3.125 7.06123 2.988 7.09423 4C7.37623 12.563 10.0832 14.729 10.3742 15.479C10.1812 16.35 8.96923 18.484 8.18123 19.423C8.56323 19.782 11.2682 19.302 11.9992 18.937C12.7342 18.57 19.0892 17.805 19.8562 17.055L16.0902 15.652C16.6552 14.545 18.3362 12.641 18.9902 4C19.0252 3.524 17.9222 3.203 17.4292 3Z" fill="#333333"/>
<path d="M2 4.5C2 4.5 6 3.5 13 3.5C20 3.5 24 4.5 24 4.5" stroke="#333333" stroke-width="1.6" stroke-miterlimit="10"/>
<path d="M19.7461 17.021L13.7461 16.021C13.3571 15.956 10.7271 15.276 10.4061 15.5L3.18708 23.969C2.50808 24.444 2.54608 25.063 2.73408 25.485C2.95808 25.989 3.76508 26.157 4.36008 25.729L13.5621 18.922L18.0831 19.824L17.8261 24.301C17.8101 24.817 17.7691 25.985 18.5971 25.985C19.1131 25.985 19.3901 25.61 19.6561 24.673L20.9431 18.569C21.0801 17.752 20.5641 17.156 19.7461 17.021Z" fill="#333333"/>
<path d="M24.6828 8.436C24.5798 8.978 24.0568 9.335 23.5138 9.233L21.5488 8.862C21.0058 8.759 20.6498 8.236 20.7518 7.693L22.0518 0.814996C22.1548 0.271996 22.6778 -0.0840043 23.2198 0.0179957L25.1858 0.388996C25.7288 0.491996 26.0848 1.015 25.9828 1.557L24.6828 8.436Z" fill="#333333"/>
<path d="M1.31719 8.436C1.42019 8.978 1.94319 9.335 2.48619 9.232L4.45119 8.861C4.99319 8.758 5.35019 8.235 5.24819 7.692L3.94819 0.813999C3.84619 0.270999 3.32319 -0.0850009 2.78019 0.0179991L0.815191 0.388999C0.272191 0.491999 -0.0848093 1.015 0.0181907 1.557L1.31719 8.436Z" fill="#333333"/>
</g>
<defs>
<clipPath id="clip0">
<rect width="26" height="26" fill="white"/>
</clipPath>
</defs>
</svg>

<?xml version="1.0" encoding="utf-8"?>
<!-- Generator: Adobe Illustrator 16.0.0, SVG Export Plug-In . SVG Version: 6.00 Build 0)  -->
<!DOCTYPE svg PUBLIC "-//W3C//DTD SVG 1.1//EN" "http://www.w3.org/Graphics/SVG/1.1/DTD/svg11.dtd">
<svg version="1.1" id="Layer_1" xmlns="http://www.w3.org/2000/svg" xmlns:xlink="http://www.w3.org/1999/xlink" x="0px" y="0px"
	 width="26px" height="26px" viewBox="0 0 26 26" enable-background="new 0 0 26 26" xml:space="preserve">
<rect fill="none" width="26" height="26"/>
<circle fill="#333333" cx="13" cy="9" r="2"/>
<path fill="#333333" d="M17.429,3c-0.775,4.834-1.044,9.077-4.429,9.077c-3.553,0-3.675-4.989-4.429-9.077
	c-0.696,0.125-1.51-0.012-1.477,1c0.282,8.563,2.989,10.729,3.28,11.479c-0.193,0.871-1.405,3.005-2.193,3.944
	c0.382,0.359,3.087-0.121,3.818-0.486c0.735-0.367,7.09-1.132,7.857-1.882l-3.766-1.403C16.655,14.545,18.336,12.641,18.99,4
	C19.025,3.524,17.922,3.203,17.429,3z"/>
<path fill="none" stroke="#333333" stroke-width="1.6" stroke-miterlimit="10" d="M2,4.5c0,0,4-1,11-1s11,1,11,1"/>
<path fill="#333333" d="M19.746,17.021l-6-1c-0.389-0.065-3.019-0.745-3.34-0.521l-7.219,8.469
	c-0.679,0.475-0.641,1.094-0.453,1.516c0.224,0.504,1.031,0.672,1.626,0.244l9.202-6.807l4.521,0.902l-0.257,4.477
	c-0.016,0.516-0.057,1.684,0.771,1.684c0.516,0,0.793-0.375,1.059-1.312l1.287-6.104C21.08,17.752,20.564,17.156,19.746,17.021z"/>
<path fill="#333333" d="M24.683,8.436c-0.103,0.542-0.626,0.899-1.169,0.797l-1.965-0.371c-0.543-0.103-0.899-0.626-0.797-1.169
	l1.3-6.878c0.103-0.543,0.626-0.899,1.168-0.797l1.966,0.371c0.543,0.103,0.899,0.626,0.797,1.168L24.683,8.436z"/>
<path fill="#333333" d="M1.317,8.436C1.42,8.978,1.943,9.335,2.486,9.232l1.965-0.371c0.542-0.103,0.899-0.626,0.797-1.169
	l-1.3-6.878C3.846,0.271,3.323-0.085,2.78,0.018L0.815,0.389c-0.543,0.103-0.9,0.626-0.797,1.168L1.317,8.436z"/>
</svg>
